X: 3
T: Whelan's
R: jig
M: 6/8
L: 1/8
K: Edor
|: E2 B BAF | FEB AFB | E2 B BAB | dAF FED |E2 B BAF | FEB AFA | BCB BAB | dAF FED :||: E2 e ede | fed e2 d | BAB g2 E | fdB AFA |B2 e ede | fed e2 f | gbg faf |[1 edB AFA :|[2 edB AFB |]


Tune 1447	Setting 1447

